svgs/sharp-light/industry-windows.svg

<svg xmlns="http://www.w3.org/2000/svg" viewBox="0 0 576 512"><!--! Font Awesome Pro 6.4.2 by @fontawesome - https://fontawesome.com License - https://fontawesome.com/license (Commercial License) Copyright 2023 Fonticons, Inc. --><path d="M48 32H32V48 256 384v80 16H48 528h16V464 320 256 128 102.6l-22.9 11L368 187.1V128 102.1l-23.2 11.6L192 190.1V48 32H176 48zM64 256V64h96V216v25.9l23.2-11.6L336 153.9v58.6 25.4l22.9-11L512 153.4V256v64V448H64V384 256zm64 48H112v16 64 16h16 64 16V384 320 304H192 128zm16 64V336h32v32H144zm96-64v16 64 16h16 64 16V384 320 304H320 256 240zm32 32h32v32H272V336zm112-32H368v16 64 16h16 64 16V384 320 304H448 384zm16 64V336h32v32H400z"/></svg>

<svg xmlns="http://www.w3.org/2000/svg" viewBox="0 0 576 512"><!--! Font Awesome Pro 6.6.0 by @fontawesome - https://fontawesome.com License - https://fontawesome.com/license (Commercial License) Copyright 2024 Fonticons, Inc. --><path d="M48 32L32 32l0 16 0 208 0 128 0 80 0 16 16 0 480 0 16 0 0-16 0-144 0-64 0-128 0-25.4-22.9 11L368 187.1l0-59.1 0-25.9-23.2 11.6L192 190.1 192 48l0-16-16 0L48 32zM64 256L64 64l96 0 0 152 0 25.9 23.2-11.6L336 153.9l0 58.6 0 25.4 22.9-11L512 153.4 512 256l0 64 0 128L64 448l0-64 0-128zm64 48l-16 0 0 16 0 64 0 16 16 0 64 0 16 0 0-16 0-64 0-16-16 0-64 0zm16 64l0-32 32 0 0 32-32 0zm96-64l0 16 0 64 0 16 16 0 64 0 16 0 0-16 0-64 0-16-16 0-64 0-16 0zm32 32l32 0 0 32-32 0 0-32zm112-32l-16 0 0 16 0 64 0 16 16 0 64 0 16 0 0-16 0-64 0-16-16 0-64 0zm16 64l0-32 32 0 0 32-32 0z"/></svg>
